X:259
T:The Road Opposite
C:Erin Whitley
R:reel
M:4/4
L:1/8
K:G
DGGA B/c/d gd | cAAG ~F3A | GD~D2 B,DGB | cA~A2 EAcA |
DGGA B/c/d gd | cAAG F3A | BG~G2 DG~G2 |1 cAFA G3E :|2 cAFA G2Bc |:
dg~g2 dG~G2 | DCB,D G2Bd | c=F~F2 DCB,D | =FGAc =fagf |
dg~g2 dG~G2 | DCB,D G2Bd | c=F~F2 CF~F2 |1 AB=FA G2Bc :|2 AG=FA G4 |]
